X:1
T:James Gibb editions
T:Pange lingua II- Palestrina
T:#
%%score [ 1 2 3 4 ]
L:1/8
Q:1/4=200
M:none
K:C
V:1 treble nm="Soprano" snm="S"
V:2 treble nm="Alto" snm="A"
V:3 treble-8 nm="Tenor" snm="T"
V:4 bass nm="Bass" snm="B"
V:1
 x16 x4 ||"^Pange lingua II""^Giovanni Pierluigi da Palestina\n(1525-94)"[Q:1/4=200] z16 | %2
w: ||
!p! c8 d8 | c4 c8 (B4 | A4 c4 B6 AG) | A8 G8 | (F2 G2) (A2 B2) c4 A4 | (G8 F4 A4- | %8
w: Cor- po-|ris my- ste\-||ri- um,|cor\- * po\- * ris my-|ste\- * *|
 A2 G2 !>!G8 ^F4 | G8) A8 | G8 z8 | z8 G8 | A4 !>!c8 B4 | A8 G8 | A16 | A16 |!f! A8 B8 | G8 E8 | %18
w: |* ri-|um|san-|gui- nis- que|prae- ti-|o-|si,|quem in|mun- di|
 (A12 G2 F2 | E2 F2 !>!G8) ^F4 | (G2 F2 E2 D2 C4) (!>!c4- | c2 B2 A2 G2 F4 F4 | G4)!p! D8 (G4- | %23
w: prae\- * *|* * * ti-|um, * * * * quem||* in mun\-|
 G2 F2 G2 D2) F4 (E4- | E4 !>!D8) ^C4 | D16- | D16 |"^cresc." G12 G4 | G8 E8 | F4 G4 A8 | A16- | %31
w: * * * * di prae\-|* * ti-|um||fru- ctus|ven- tris|ge- ne- ro-|si|
 A8 z8 | z8!p! A8 | B8 G8 | E4 (!>!A6 G2 F4- | F4 E2 D2 E2 F2 G4- | G2 F2 !>!E8) D4 | E8!f! E8 | %38
w: |Rex|ef- fu-|dit gen\- * *||* * * ti-|um, Rex|
 ^F8 G8 | E8[Q:1/4=198] (c6[Q:1/4=195] B2 | %40
w: ef- fu-|dit gen\- *|
[Q:1/4=194] A2[Q:1/4=193] G2[Q:1/4=191] F6[Q:1/4=189] E2[Q:1/4=187] E4- | %41
w: |
[Q:1/4=185] E4[Q:1/4=183] D2[Q:1/4=182] C2[Q:1/4=181] D4)[Q:1/4=179] D4 |[Q:1/4=173] E16- | %43
w: * * * * ti-|um.|
[Q:1/4=170] !fermata!E16 |] %44
w: |
V:2
 x16 x4 ||!p! C8 D8 | C4 (!>!C8 B,4) | (A,2 B,2 C2 D2 E2 F2 G2 E2 | F6 E2 D4) E4 | A,8 z4 E4 | %6
w: |Cor- po-|ris my\- *|ste\- * * * * * * *|* * * ri-|um, cor-|
 A,4 !>!F8 E4 | (E6 D2 C2 B,2 A,4 | D6 CB,) C4 D4 | B,8 D8 | (E4 !>!G8) F4 | E8 (D6 E2) | %12
w: po- ris my-|ste\- * * * *|* * * ri- um|san- gui-|nis\- * que|prae- ti\- *|
 (F4 !>!E6 F2 !>!G4- | G4 F4 E6 D2) | C4 !>!F8 F4 | E16 |!f! F8 D8 | (E8 C8) | A,8 D4 D4 | %19
w: o\- * * *||si, prae- ti-|o-|si, in|mun\- *|di prae- ti-|
 (C6 B,2 A,8 | G,4 (!>!G6 F2 E2 D2 | C4) C4 D8- | D8!p! B,8 | E4 D8 C4- | C4) B,4 A,8 | %25
w: um * *|* quem * * *|* in mun\-|* di|prae\- * *|* ti- um|
 z4 A,8 B,4 | A,8 B,8 |"^cresc." E8 D8 | E8 C8 | D4 E4 (F8- | F4 E4 D4 C4) | C16 | z16 |!p! D8 E8 | %34
w: fru- ctus|ven- tris,|fru- ctus|ven- tris|ge- ne- ro\-||si||Rex ef-|
 C8 A,4 (!>!D4- | D4 C2 B,2 C8- | C4) B,4 A,8 |!f! B,8 ^C8 | D16 | C4 (G6 F2 E2 D2 | C16 | A,16 | %42
w: fu- dit gen\-||* ti- um,|Rex ef-|fu-|dit gen\- * * *|||
!pp! C12) C4 | !fermata!B,16 |] %44
w: * ti-|um.|
V:3
 x16 x4 || z16 | z16 | z16 | z16 | z8!p! c8 | d8 c4 c4 | (c4 B4 A4 c4 | B6 AG) A8 | G8 z8 | G8 A8 | %11
w: |||||Cor-|po- ris my-|ste\- * * *|* * * ri-|um|san- gui-|
 c12 B4 | A8 G8 | (d8 B4 !>!c4- | c2 A2 d4 c4 !>!d4- | d4 ^c2 B2 c8) | d8 z4!f! G4 | %17
w: nis- que|prae- ti-|o\- * *|||si, quem|
 G4 (!>!c6 B2 A2 G2 | F4) D4 F4 G4 | C8 z8 | z16 | (A16 | B8)!p! G8 | (G8 A4) A4 | (G6 F2) E8 | %25
w: in mun\- * * *|* di prae- ti-|um||quem|* in|mun\- * di|prae\- * ti-|
 D8 z4 !>!G4- | G4 ^F4 G8 |"^cresc." C4 c8 B4 | c4 G4 (A6 G2 | F4) E4 D2 (E2 F2 G2 | A6 G2 F4 E4 | %31
w: um fru\-|* ctus ven-|tris, fru- ctus|ven- tris ge\- *|* ne- ro\- * * *||
 F6!p! G2 A2 B2 c4- | c4 B4 A8) | G8 z4 G4 | A8 F8 | D4 (!>!A8 G2 F2 | E2 F2 G2 E2 F4) F4 | E8 z8 | %38
w: ||si Rex|ef- fu-|dit gen\- * *|* * * * * ti-|um,|
!f! A8 B8 | G8 E8 |!p! (A12 G4 | F16 |!pp! E4 A8) A4 | !fermata!^G16 |] %44
w: Rex ef-|fu- dit|gen\- *||* * ti-|um.|
V:4
 E,2 E,2 E,2 D,2 G,2 G,2 A,2 C2 C4 || z16 | z16 | z16 |!p! F,8 G,8 | F,4 (!>!F,8 E,4) | %6
w: Pan- ge lin- gua glo- ri- o\- * si||||Cor- po-|ris my\- *|
 (D,2 E,2 F,2 G,2 A,6 G,F, | E,8) F,8 | G,8 z4 D,4 | E,4 G,8 F,4 | E,8 D,8 | C,8 G,,8 | z16 | %13
w: ste\- * * * * * *|* ri-|um san-|gui- nis- que|prae- ti-|o- si,||
 D,8 E,8 | F,4 D,4 !>!F,6 G,2 | A,8 A,8 |!f! D,8 A,8 | C,8 C,8 | z16 | z8 D,8 | E,8 C,8 | %21
w: san- gui-|nis- que prae- ti-|o- si,|quem in|mun- di,||quem|in mun-|
 A,,8 D,4 D,4 | G,,4!p! (G,6 F,2 E,2 D,2 | C,4) B,,4 D,4 A,,4 | C,4 G,,4 A,,8 | z4 !>!D,8 G,,4 | %26
w: di prae- ti-|um, quem * * *|* in mun- di|prae- ti- um|fru- ctus|
 D,8 G,,4 !>!G,4- |"^cresc." G,4 C,4 G,8 | C,8 z8 | z8 z4!mf! D,4- | D,4 ^C,4 D,4 A,,4 | %31
w: ven- tris, fru\-|* ctus ven-|tris,|fru\-|* ctus ven- tris|
 (A,6!p! G,2 F,4) E,4 | (F,4 !>!G,8 F,4 | G,8) C,8 | z16 | z16 | z8 z4!f! A,4- | A,4 ^G,4 A,8 | %38
w: ge\- * * ne-|ro\- * *|* si|||Rex|* ef- fu-|
 D,8 G,4 G,4 | C,16 |!p! F,8 C,8 | D,8 D,8 |!pp! A,,12 A,,4 | !fermata!E,16 |] %44
w: dit gen- ti-|um,|Rex ef-|fu- dit|gen- ti-|um.|

